X: 28159
T: Mrs Lily Christie
R: jig
M: 6/8
K: Gmajor
|:D|G2B D2G|DGd BAG|E3 c2B|ABG FED|
G2B D2G|DGd BAG|E3 cAA|DAF G2||
|:c|dB/c/d B2D|GBd BGG|c2E EcB|ABG FED|
[1 dB/c/d B2D|GBd BGG|E3 c2A|DAF G2:|
[2 G2B D2G|DGd BAG|E3 c2A|DAF G2||
|:D|G3 DGB|DBd BGG|E3 c2B|ABG FED|
G3 DGB|DBd BGG|E3 cAA|DAF G2:|
|:dB/c/d d3|Ddd BAG|cAc BGB|ABG FED|
[1 dB/c/d d3|Ddd BAG|E3 cAA|DAF G2:|
[2 G3 DGB|DBd BGG|E3 cAA|DAF G2||

